articles/media/index/Disks-color.svg

<?xml version="1.0" encoding="utf-8"?>
<!-- Generator: Adobe Illustrator 21.1.0, SVG Export Plug-In . SVG Version: 6.00 Build 0)  -->
<svg version="1.1" id="Layer_1" xmlns="http://www.w3.org/2000/svg" xmlns:xlink="http://www.w3.org/1999/xlink" x="0px" y="0px"
	 width="100%" height="100%" viewBox="0 0 50 50" enable-background="new 0 0 50 50" xml:space="preserve">
<path fill="#4A9F49" d="M24,18.5c0,2.485-5.373,4.5-12,4.5S0,20.985,0,18.5v-3h24V18.5z"/>
<ellipse fill="#ADC80B" cx="12" cy="15.5" rx="12" ry="4.5"/>
<path fill="#CBE238" d="M10.371,11.046C8.153,11.159,6.126,11.497,4.465,12l5.472,2.542c0.452-0.144,1.003-0.241,1.613-0.274
	L10.371,11.046z"/>
<path fill="#CBE238" d="M19.535,19l-5.472-2.542c-0.452,0.144-1.003,0.241-1.613,0.274l1.178,3.221
	C15.847,19.841,17.874,19.503,19.535,19z"/>
<ellipse fill="#087E06" cx="12" cy="15.5" rx="3.25" ry="1.25"/>
<path fill="#0879DA" d="M24,8.5c0,2.485-5.373,4.5-12,4.5S0,10.985,0,8.5v-3h24V8.5z"/>
<ellipse fill="#11BDF5" cx="12" cy="5.5" rx="12" ry="4.5"/>
<path fill="#39CEF7" d="M10.371,1.046C8.153,1.159,6.126,1.497,4.465,2l5.472,2.542c0.452-0.144,1.003-0.241,1.613-0.274
	L10.371,1.046z"/>
<path fill="#39CEF7" d="M19.535,9l-5.472-2.542c-0.452,0.144-1.003,0.241-1.613,0.274l1.178,3.221
	C15.847,9.841,17.874,9.503,19.535,9z"/>
<ellipse fill="#035293" cx="12" cy="5.5" rx="3.25" ry="1.25"/>
</svg>

<svg id="Layer_1" data-name="Layer 1" xmlns="http://www.w3.org/2000/svg" viewBox="0 0 24 24"><defs><style>.cls-1{fill:#4a9f49;}.cls-2{fill:#adc80b;}.cls-3{fill:#cbe238;}.cls-4{fill:#087e06;}.cls-5{fill:#0879da;}.cls-6{fill:#11bdf5;}.cls-7{fill:#39cef7;}.cls-8{fill:#035293;}</style></defs><title>Artboard 1</title><path class="cls-1" d="M24,18.5C24,21,18.63,23,12,23S0,21,0,18.5v-3H24Z"/><ellipse class="cls-2" cx="12" cy="15.5" rx="12" ry="4.5"/><path class="cls-3" d="M10.37,11a25.17,25.17,0,0,0-5.91,1l5.47,2.54a6.57,6.57,0,0,1,1.61-.27Z"/><path class="cls-3" d="M19.53,19l-5.47-2.54a6.57,6.57,0,0,1-1.61.27L13.63,20A25.13,25.13,0,0,0,19.53,19Z"/><ellipse class="cls-4" cx="12" cy="15.5" rx="3.25" ry="1.25"/><path class="cls-5" d="M24,8.5C24,11,18.63,13,12,13S0,11,0,8.5v-3H24Z"/><ellipse class="cls-6" cx="12" cy="5.5" rx="12" ry="4.5"/><path class="cls-7" d="M10.37,1A25.17,25.17,0,0,0,4.47,2L9.94,4.54a6.57,6.57,0,0,1,1.61-.27Z"/><path class="cls-7" d="M19.53,9,14.06,6.46a6.57,6.57,0,0,1-1.61.27L13.63,10A25.13,25.13,0,0,0,19.53,9Z"/><ellipse class="cls-8" cx="12" cy="5.5" rx="3.25" ry="1.25"/></svg>
